static/assets/images/icons/bug.svg

<svg width="256" height="256" viewBox="0 0 256 256" fill="none" xmlns="http://www.w3.org/2000/svg">
<path d="M227.995 140.851C227.808 147.66 222.051 153 215.24 153H193.625V159.25C193.625 167.791 191.718 175.884 188.312 183.135L211.839 206.661C216.72 211.543 216.72 219.457 211.839 224.339C206.957 229.221 199.042 229.22 194.161 224.339L172.78 202.958C163.112 210.799 150.793 215.5 137.375 215.5V120.187C137.375 117.599 135.276 115.5 132.687 115.5H123.312C120.724 115.5 118.625 117.599 118.625 120.187V215.5C105.206 215.5 92.8881 210.799 83.2201 202.958L61.8388 224.339C56.9568 229.221 49.0424 229.22 44.1607 224.339C39.2791 219.458 39.2795 211.543 44.1607 206.661L67.6873 183.135C64.2818 175.884 62.3748 167.791 62.3748 159.25V153H40.7599C33.949 153 28.1916 147.66 28.0048 140.851C27.8107 133.787 33.4795 128 40.4998 128H62.3748V105.053L44.1607 86.8386C39.2795 81.957 39.2795 74.0425 44.1607 69.1609C49.0427 64.2793 56.9568 64.2793 61.8388 69.1609L83.1775 90.5H172.822L194.16 69.1613C199.042 64.2797 206.956 64.2797 211.839 69.1613C216.72 74.0429 216.72 81.9574 211.839 86.839L193.625 105.053V128H215.5C222.52 128 228.189 133.787 227.995 140.851ZM128.39 28C104.228 28 84.6404 47.5875 84.6404 71.75H172.14C172.14 47.5875 152.553 28 128.39 28Z" fill="black"/>
</svg>

<svg xmlns="http://www.w3.org/2000/svg" fill="none" viewBox="0 0 256 256"><path fill="#000" d="M227.995 140.851C227.808 147.66 222.051 153 215.24 153h-21.615v6.25a56 56 0 0 1-5.313 23.885l23.527 23.526c4.881 4.882 4.881 12.796 0 17.678s-12.797 4.881-17.678 0l-21.381-21.381a56 56 0 0 1-35.405 12.542v-95.313a4.69 4.69 0 0 0-4.688-4.687h-9.375a4.69 4.69 0 0 0-4.687 4.687V215.5c-13.419 0-25.737-4.701-35.405-12.542l-21.38 21.381c-4.882 4.882-12.797 4.881-17.678 0s-4.882-12.796 0-17.678l23.526-23.526a56 56 0 0 1-5.312-23.885V153H40.76c-6.811 0-12.568-5.34-12.755-12.149C27.81 133.787 33.48 128 40.5 128h21.875v-22.947L44.16 86.839c-4.882-4.882-4.882-12.796 0-17.678s12.796-4.882 17.678 0L83.177 90.5h89.645l21.338-21.339c4.882-4.881 12.796-4.881 17.679 0 4.881 4.882 4.881 12.796 0 17.678l-18.214 18.214V128H215.5c7.02 0 12.689 5.787 12.495 12.851M128.39 28c-24.162 0-43.75 19.588-43.75 43.75h87.5c0-24.162-19.587-43.75-43.75-43.75"/></svg>
